X:50
T:Old 1812 Q. S.
S:American Veteran Fifer #50
C:Donated by John B. Mason, Spring Valley Ohio Drum Major 154th O.V.I.
M:2/4
L:1/8
Q:1/8=180
K:D 
%%MIDI program 72
%%MIDI transpose 8
%%MIDI ratio 3 1
DFAd | AFAd | DFAd | A/G/F/G/ E2 |
DFAd | AF Ag | fdef | d2 d2 :|
|: fd de/f/ | gfed | cA/B/ A/B/c/d/ | eA A2 |
fd de/f/ | gfed | cA/B/ A/B/c/e/ | dfd :|


